X:566
T: Lutscha (264), S. 563
N: T0454
O: Luxemburg
S: Singendes Volk, Esch-Alzette, 1937 posth.]
N: Rammeldingen, J.P. Gloden, 19.2.1934
R: Scherz-, Spiel-, Spottlied]
M: 2/4
L: 1/16
K: C
C2 | C2C2C2EE | G2G2G2z2
G2G2c4 | B2A2G2
G2 | G2GGG2G2 | B2G2G2
G2 | GGGGA2G2 | F2D2C2z2
A4A4 | G2F2E2G2 | G2G2G2G2 | G2G2E4
A4A4 | G2B2B2B2 | G2G2G2G2 | E4z2

